X:265
T: Tommy Peoples'
S: "Music from Ireland 2" (Bulmer & Sharpley)
R: jig
M: 6/8
L: 1/8
K: A
A3 cee|fec ecB|A3 cee|fec BAF|
A3 cee|fec efa|b2f ecA|BAB cAF :|
aga gbg|faf efg|a3 fec|fbb baf|
aga gbg|afa efg|a2f ecA|BAB cAF :|
A2f ecA|cBc ecB|A2f ecA|BAB cAF|
A2f ecA|cBc efa|B2f ecA|BAB cAF :|
